Simply-Red-Circles/scalable/apps/eclipse.svg

<svg xmlns="http://www.w3.org/2000/svg" width="48" height="48" viewBox="0 0 12.7 12.7"><path fill="#a02c2c" d="M6.344.073a6.29 6.29 0 0 0-6.29 6.29 6.29 6.29 0 0 0 6.29 6.288 6.29 6.29 0 0 0 6.29-6.289 6.29 6.29 0 0 0-6.29-6.29zm-.018.936a5.407 5.407 0 0 1 5.407 5.407 5.407 5.407 0 0 1-5.407 5.407A5.407 5.407 0 0 1 .92 6.416 5.407 5.407 0 0 1 6.326 1.01zm.053.695A4.65 4.65 0 0 0 1.734 6.35c0 .528.093 1.033.256 1.506L7.885 1.96a4.616 4.616 0 0 0-1.506-.256zm1.901.412l.053.053L2.18 8.323c.15.317.332.614.546.887l6.513-6.513a4.648 4.648 0 0 0-.959-.581zm1.311.886l-6.56 6.56c.274.285.585.534.923.742l6.374-6.373.025.025a4.67 4.67 0 0 0-.762-.954zm.975 1.348l-6.187 6.186a4.61 4.61 0 0 0 2 .46 4.65 4.65 0 0 0 4.646-4.646 4.61 4.61 0 0 0-.46-2z"/></svg>

<?xml version="1.0" encoding="UTF-8" standalone="no"?>
<svg
   xmlns:dc="http://purl.org/dc/elements/1.1/"
   xmlns:cc="http://creativecommons.org/ns#"
   xmlns:rdf="http://www.w3.org/1999/02/22-rdf-syntax-ns#"
   xmlns:svg="http://www.w3.org/2000/svg"
   xmlns="http://www.w3.org/2000/svg"
   xmlns:sodipodi="http://sodipodi.sourceforge.net/DTD/sodipodi-0.dtd"
   xmlns:inkscape="http://www.inkscape.org/namespaces/inkscape"
   width="48"
   height="48"
   viewBox="0 0 12.7 12.7"
   version="1.1"
   id="svg4"
   sodipodi:docname="eclipse.svg"
   inkscape:version="0.92.4 (5da689c313, 2019-01-14)">
  <metadata
     id="metadata10">
    <rdf:RDF>
      <cc:Work
         rdf:about="">
        <dc:format>image/svg+xml</dc:format>
        <dc:type
           rdf:resource="http://purl.org/dc/dcmitype/StillImage" />
        <dc:title></dc:title>
      </cc:Work>
    </rdf:RDF>
  </metadata>
  <defs
     id="defs8" />
  <sodipodi:namedview
     pagecolor="#ffffff"
     bordercolor="#666666"
     borderopacity="1"
     objecttolerance="10"
     gridtolerance="10"
     guidetolerance="10"
     inkscape:pageopacity="0"
     inkscape:pageshadow="2"
     inkscape:window-width="1087"
     inkscape:window-height="480"
     id="namedview6"
     showgrid="false"
     inkscape:zoom="4.9166667"
     inkscape:cx="2.1355932"
     inkscape:cy="24"
     inkscape:window-x="0"
     inkscape:window-y="25"
     inkscape:window-maximized="0"
     inkscape:current-layer="svg4" />
  <path
     d="m 6.344,0.073 a 6.29,6.29 0 0 0 -6.29,6.29 6.29,6.29 0 0 0 6.29,6.288 6.29,6.29 0 0 0 6.29,-6.289 6.29,6.29 0 0 0 -6.29,-6.29 z M 6.326,1.009 A 5.407,5.407 0 0 1 11.733,6.416 5.407,5.407 0 0 1 6.326,11.823 5.407,5.407 0 0 1 0.92,6.416 5.407,5.407 0 0 1 6.326,1.01 Z M 6.379,1.704 A 4.65,4.65 0 0 0 1.734,6.35 c 0,0.528 0.093,1.033 0.256,1.506 L 7.885,1.96 A 4.616,4.616 0 0 0 6.379,1.704 Z M 8.28,2.116 8.333,2.169 2.18,8.323 C 2.33,8.64 2.512,8.937 2.726,9.21 L 9.239,2.697 A 4.648,4.648 0 0 0 8.28,2.116 Z m 1.311,0.886 -6.56,6.56 c 0.274,0.285 0.585,0.534 0.923,0.742 l 6.374,-6.373 0.025,0.025 A 4.67,4.67 0 0 0 9.591,3.002 Z m 0.975,1.348 -6.187,6.186 a 4.61,4.61 0 0 0 2,0.46 4.65,4.65 0 0 0 4.646,-4.646 4.61,4.61 0 0 0 -0.46,-2 z"
     id="path2"
     inkscape:connector-curvature="0"
     style="fill:#a02c2c" />
</svg>
